svg/color/mona.svg

<svg height="32" viewBox="0 0 32 32" width="32" xmlns="http://www.w3.org/2000/svg"><g fill="none" fill-rule="nonzero"><circle cx="16" cy="16" fill="#dec799" r="16"/><path d="m23.529471 13.4135726-1.4236775-6.4135726-2.7969774 4.4136848c-2.1743073-.5249579-4.4423174-.5249579-6.6166247 0l-2.79093195-4.4136848-1.42871537 6.4135726c-1.53652393 1.2286035-2.47254408 2.8337634-2.47254408 4.595401 0 3.8594504 4.4755668 6.9890073 9.9969773 6.9890073 5.5214106 0 9.9969774-3.1295569 9.9969774-6.9890073-.0010076-1.7616376-.9299749-3.3667975-2.4644837-4.595401zm-13.0861461 2.9377454h-.66599493l1.62619643-1.8767246h1.1848867zm5.5032746 4.5832866-2.7657431-4.8720135.6831234-.3896803.6166247 1.0852496h3.0216625l.6438287-1.0902972.6760705.4017947zm5.6130982-4.5832866-2.1460957-1.8767246h1.1919396l1.6251889 1.8767246zm-5.6 3.01447-1.0327456-1.8191812h2.1078086z" fill="#fff"/></g></svg>

<svg xmlns="http://www.w3.org/2000/svg" width="32" height="32" viewBox="0 0 32 32">
  <g fill="none" fill-rule="evenodd">
    <circle cx="16" cy="16" r="16" fill="#DEC799" fill-rule="nonzero"/>
    <path fill="#FFF" fill-rule="nonzero" d="M23.529471,13.4135726 L22.1057935,7 L19.3088161,11.4136848 C17.1345088,10.8887269 14.8664987,10.8887269 12.6921914,11.4136848 L9.90125945,7 L8.47254408,13.4135726 C6.93602015,14.6421761 6,16.247336 6,18.0089736 C6,21.868424 10.4755668,24.9979809 15.9969773,24.9979809 C21.5183879,24.9979809 25.9939547,21.868424 25.9939547,18.0089736 C25.9929471,16.247336 25.0639798,14.6421761 23.529471,13.4135726 Z M10.4433249,16.351318 L9.77732997,16.351318 L11.4035264,14.4745934 L12.5884131,14.4745934 L10.4433249,16.351318 Z M15.9465995,20.9346046 L13.1808564,16.0625911 L13.8639798,15.6729108 L14.4806045,16.7581604 L17.502267,16.7581604 L18.1460957,15.6678632 L18.8221662,16.0696579 L15.9465995,20.9346046 Z M21.5596977,16.351318 L19.413602,14.4745934 L20.6055416,14.4745934 L22.2307305,16.351318 L21.5596977,16.351318 Z M15.9596977,19.365788 L14.9269521,17.5466068 L17.0347607,17.5466068 L15.9596977,19.365788 Z"/>
  </g>
</svg>
